X:31
T:Reel 31
M:4/4
K:Emin
L:1/8
BA|GEDE B,EDE|FDDD FDAD|GEEF GAB^c||dBAF GEF:||2AFdF E2|BA|GEBE GEBE|GEBE AFDF|GEBE GEBE|AFDF E2EA|GEBE GEBE|ADFD ADFA|GFEG F2DF|GFFE DEE2|
